src/components/content/our-services/cogs.svg

<svg width="42" height="42" viewBox="0 0 42 42" fill="none" xmlns="http://www.w3.org/2000/svg">
  <path
    d="M25.5208 24.5626L28.4375 19.5209C28.625 19.2084 28.5416 18.8126 28.2708 18.5834L25.1875 16.1667C25.25 15.7084 25.2916 15.2292 25.2916 14.7501C25.2916 14.2709 25.25 13.7917 25.1875 13.3126L28.2708 10.8959C28.5416 10.6667 28.625 10.2709 28.4375 9.95841L25.5208 4.91675C25.3333 4.60425 24.9583 4.47925 24.625 4.60425L21 6.06258C20.25 5.47925 19.4375 5.00008 18.5416 4.62508L18 0.770915C17.9375 0.437581 17.625 0.166748 17.2708 0.166748H11.4375C11.0833 0.166748 10.7708 0.437581 10.7083 0.791748L10.1666 4.64591C9.29163 5.02091 8.4583 5.50008 7.7083 6.08341L4.0833 4.62508C3.74997 4.50008 3.37497 4.62508 3.18747 4.93758L0.2708 9.97925C0.0832996 10.2917 0.166633 10.6876 0.437467 10.9167L3.5208 13.3334C3.4583 13.7917 3.41663 14.2709 3.41663 14.7501C3.41663 15.2292 3.4583 15.7084 3.5208 16.1876L0.437467 18.6042C0.166633 18.8334 0.0832996 19.2292 0.2708 19.5417L3.18747 24.5834C3.37497 24.8959 3.74997 25.0209 4.0833 24.8959L7.7083 23.4376C8.4583 24.0209 9.2708 24.5001 10.1666 24.8751L10.7083 28.7292C10.7708 29.0626 11.0833 29.3334 11.4375 29.3334H17.2708C17.625 29.3334 17.9375 29.0626 18 28.7084L18.5416 24.8542C19.4166 24.4792 20.25 24.0001 21 23.4167L24.625 24.8751C24.9583 25.0001 25.3333 24.8751 25.5208 24.5626ZM14.3541 18.9167C12.0625 18.9167 10.1875 17.0417 10.1875 14.7501C10.1875 12.4584 12.0625 10.5834 14.3541 10.5834C16.6458 10.5834 18.5208 12.4584 18.5208 14.7501C18.5208 17.0417 16.6458 18.9167 14.3541 18.9167Z"
    fill="#04E0BD"/>
  <path
    d="M41.6667 34.896L39.6667 33.3543C39.7083 33.0627 39.75 32.7502 39.75 32.4377C39.75 32.1252 39.7292 31.8127 39.6667 31.521L41.6458 29.9793C41.8125 29.8335 41.875 29.5835 41.75 29.3752L39.875 26.146C39.7708 25.9377 39.5208 25.8752 39.2917 25.9377L36.9792 26.8752C36.5 26.5002 35.9792 26.1877 35.3958 25.9585L35.0417 23.5002C35.0208 23.2502 34.8125 23.0835 34.6042 23.0835H30.875C30.6458 23.0835 30.4375 23.2502 30.4167 23.4793L30.0625 25.9377C29.5 26.1877 28.9583 26.4793 28.4792 26.8543L26.1667 25.9168C25.9583 25.8335 25.7083 25.9168 25.5833 26.1252L23.7083 29.3543C23.6042 29.5627 23.625 29.8127 23.8125 29.9585L25.7917 31.5002C25.75 31.7918 25.7292 32.1043 25.7292 32.4168C25.7292 32.7293 25.75 33.0418 25.7917 33.3335L23.8125 34.8752C23.6458 35.021 23.5833 35.271 23.7083 35.4793L25.5833 38.7085C25.6875 38.9168 25.9375 38.9793 26.1667 38.9168L28.4792 37.9793C28.9583 38.3543 29.4792 38.6668 30.0625 38.896L30.4167 41.3543C30.4583 41.5835 30.6458 41.7502 30.875 41.7502H34.6042C34.8333 41.7502 35.0417 41.5835 35.0625 41.3543L35.4167 38.896C35.9792 38.646 36.5208 38.3543 36.9792 37.9793L39.3125 38.9168C39.5208 39.0002 39.7708 38.9168 39.8958 38.7085L41.7708 35.4793C41.8958 35.2918 41.8333 35.0418 41.6667 34.896ZM32.7292 35.2293C31.1875 35.2293 29.9167 33.9793 29.9167 32.4168C29.9167 30.8543 31.1667 29.6043 32.7292 29.6043C34.2917 29.6043 35.5417 30.8543 35.5417 32.4168C35.5417 33.9793 34.2708 35.2293 32.7292 35.2293Z"
    fill="#04E0BD"/>
</svg>

<svg xmlns="http://www.w3.org/2000/svg" width="42" height="42" fill="none">
  <path fill="#04E0BD"
        d="m25.52 24.563 2.918-5.042a.736.736 0 0 0-.167-.938l-3.084-2.416c.063-.459.105-.938.105-1.417 0-.48-.042-.958-.105-1.437l3.084-2.417a.736.736 0 0 0 .166-.938l-2.916-5.041a.737.737 0 0 0-.896-.313L21 6.063a10.712 10.712 0 0 0-2.458-1.438L18 .771a.758.758 0 0 0-.73-.604h-5.832a.756.756 0 0 0-.73.625l-.541 3.854c-.875.375-1.709.854-2.459 1.437L4.083 4.625a.737.737 0 0 0-.896.313L.271 9.979a.736.736 0 0 0 .166.938l3.084 2.416c-.063.459-.104.938-.104 1.417 0 .48.041.958.104 1.438L.437 18.604a.736.736 0 0 0-.166.938l2.916 5.041c.188.313.563.438.896.313l3.625-1.458c.75.583 1.563 1.062 2.459 1.437l.541 3.854a.758.758 0 0 0 .73.604h5.833c.354 0 .666-.27.729-.625l.542-3.854A11.17 11.17 0 0 0 21 23.417l3.625 1.458c.333.125.708 0 .896-.312Zm-11.166-5.646a4.179 4.179 0 0 1-4.166-4.167 4.179 4.179 0 0 1 4.166-4.167 4.179 4.179 0 0 1 4.167 4.167 4.179 4.179 0 0 1-4.167 4.167Zm27.313 15.979-2-1.542c.041-.291.083-.604.083-.916 0-.313-.02-.625-.083-.917l1.979-1.542a.476.476 0 0 0 .104-.604l-1.875-3.229c-.104-.208-.354-.27-.583-.208l-2.313.937c-.479-.375-1-.687-1.583-.916l-.354-2.459a.45.45 0 0 0-.438-.416h-3.729c-.23 0-.438.166-.458.395l-.355 2.459c-.562.25-1.104.541-1.583.916l-2.312-.937a.48.48 0 0 0-.584.208l-1.875 3.23c-.104.208-.083.458.105.604l1.979 1.541a6.546 6.546 0 0 0-.063.917c0 .312.021.625.063.916l-1.98 1.542a.476.476 0 0 0-.104.604l1.875 3.23c.105.208.355.27.584.208l2.312-.938c.48.375 1 .688 1.584.917l.354 2.458c.041.23.229.396.458.396h3.73c.228 0 .437-.166.458-.396l.354-2.458c.562-.25 1.104-.542 1.562-.917l2.334.938c.208.083.458 0 .583-.209l1.875-3.229c.125-.187.062-.437-.104-.583Zm-8.938.333a2.814 2.814 0 0 1-2.812-2.812 2.8 2.8 0 0 1 2.812-2.813 2.8 2.8 0 0 1 2.813 2.813 2.814 2.814 0 0 1-2.813 2.812Z"/>
</svg>
